public/images/houseWhite.svg

<?xml version="1.0" encoding="UTF-8"?>
<svg width="30px" height="27px" viewBox="0 0 30 27" version="1.1" xmlns="http://www.w3.org/2000/svg" xmlns:xlink="http://www.w3.org/1999/xlink">
    <!-- Generator: sketchtool 50.2 (55047) - http://www.bohemiancoding.com/sketch -->
    <title>706AB4EF-5889-4199-A361-07CE369263C3</title>
    <desc>Created with sketchtool.</desc>
    <defs></defs>
    <g id="Page-1" stroke="none" stroke-width="1" fill="none" fill-rule="evenodd">
        <g id="Flöde---med-drift" transform="translate(-173.000000, -595.000000)" fill="#FFFFFF" fill-rule="nonzero">
            <g id="Menu-Copy-2" transform="translate(0.000000, 584.000000)">
                <g id="Hus" transform="translate(163.000000, 0.000000)">
                    <g id="House" transform="translate(10.000000, 11.000000)">
                        <path d="M28.962,11.67 L15.762,0.87 C15.3191978,0.506019417 14.6808022,0.506019417 14.238,0.87 L1.038,11.67 C0.705743001,11.9422364 0.543961253,12.3710502 0.613596374,12.7949114 C0.683231496,13.2187725 0.973704255,13.5732865 1.37559637,13.7249114 C1.77748849,13.8765362 2.229743,13.8022364 2.562,13.53 L4.2,12.186 L4.2,23.4 C4.2,25.3882251 5.8117749,27 7.8,27 L22.2,27 C24.1882251,27 25.8,25.3882251 25.8,23.4 L25.8,12.186 L27.438,13.53 C27.6531266,13.7054242 27.9224169,13.8008419 28.2,13.8 C28.7082387,13.8015473 29.1623313,13.4827544 29.3335274,13.004214 C29.5047236,12.5256737 29.3558892,11.9911858 28.962,11.67 Z M12.6,24.6 L12.6,18.6 C12.6,17.9372583 13.1372583,17.4 13.8,17.4 L16.2,17.4 C16.8627417,17.4 17.4,17.9372583 17.4,18.6 L17.4,24.6 L12.6,24.6 Z M23.4,23.4 C23.4,24.0627417 22.8627417,24.6 22.2,24.6 L19.8,24.6 L19.8,18.6 C19.8,16.6117749 18.1882251,15 16.2,15 L13.8,15 C11.8117749,15 10.2,16.6117749 10.2,18.6 L10.2,24.6 L7.8,24.6 C7.1372583,24.6 6.6,24.0627417 6.6,23.4 L6.6,10.2 L15,3.348 L23.4,10.2 L23.4,23.4 Z" id="Shape"></path>
                    </g>
                </g>
            </g>
        </g>
    </g>
</svg>

<svg width="30" height="27" xmlns="http://www.w3.org/2000/svg"><path d="M29 11.7L15.8.9c-.5-.4-1.1-.4-1.6 0L1 11.7a1.2 1.2 0 0 0 1.6 1.8l1.6-1.3v11.2c0 2 1.6 3.6 3.6 3.6h14.4c2 0 3.6-1.6 3.6-3.6V12.2l1.6 1.3c.3.2.5.3.8.3a1.2 1.2 0 0 0 .8-2.1zM12.6 24.6v-6c0-.7.5-1.2 1.2-1.2h2.4c.7 0 1.2.5 1.2 1.2v6h-4.8zm10.8-1.2c0 .7-.5 1.2-1.2 1.2h-2.4v-6c0-2-1.6-3.6-3.6-3.6h-2.4c-2 0-3.6 1.6-3.6 3.6v6H7.8c-.7 0-1.2-.5-1.2-1.2V10.2L15 3.3l8.4 6.9v13.2z" fill="#FFF" fill-rule="nonzero"/></svg>
